X:104
T:Miss Jessie Dalrymple
R:Reel
C:Robert Marshall
S:MacDonald - Skye Collection
N:pg.193
M:C
L:1/8
K:B_
F|B2 (dB) fBdB|(Gc)(ec) gcec|(A/c/f) a>f bgaf|(=e/f/g) c>e fFF:|
E|(D/E/F) (BF) GEeg|FdDF ECce|(D/E/F) (BF) GEce|(d/c/B) FA BB,B,E|
(D/E/F) (BF) GEeg|FdDF ECce|DFBb acdg|fBAe dBB||
